X:0897
M:C
L:1/8
Q:1/2=104
K:D
e|f2af dAdf|gefd (c/d/e) cA|fgaf dAdf|geaf d/d/d de|
  f2af dAdf|gefd (c/d/e) cA|BdAd GdFA|Bgfe d/d/d d|]

